X:409
T:Reel 409
L:1/8
M: 4/4
K: G Major
BA|BdCABGGF|D2BcdBBA|BdCABGGF|EAABA2GE|BdCABGGF|D2BcBcdA|BeededBc|dBGBA2GE|BAAd(3Bcdge|D2BcdBBA|BAAd(3Bcdge|eAAdec'ag|ge(3fed(3Bcdge|dBBABcdA|cAFGcege|dBGBA2|.abc